X: 79
T: No_16_Song_of_Medicine_Men's_Dance_(b).krn
N: Derived from No_16_Song_of_Medicine_Men's_Dance_(b).krn
%%abc-version 2.0
%%abcx-abcm2ps-target-version 5.9.1 (29 Sep 2008)
%%abc-creator hum2abc beta
%%abcx-conversion-date 2019/03/15 08:38:45
%%humdrum-veritas 2914986742
%%humdrum-veritas-data 377427746
%%linebreak <none>
%%barnumbers 0
L: 1/8
M: 2/4
K: E clef=bass
[K:clef=bass][M:2/4]z2z3/ B,/ | 
B,7/B,/ ||  
[M:3/4](3B,A,A,G,2B,B, ||  
[M:2/4](3:2:7B,G,/ z/ B, G,E,E, | 
E,2G,G, | 
G,3/B,/ (3G,E,E, | 
E,2B,,B,, | 
E,3/E,/ (3E,B,,B,, | 
B,, z E,3/E,/ | 
E,3/G,/ (3G,G,E, | 
E,2B,B, | 
(3:2:7G,E,/ z/ G, G,G,E, | 
E,2B,,B,, | 
E,3/E,/ (3E,B,,B,, | 
B,,2z2 |]  



